src/extras-openmoji/brand/E042.svg

<?xml version="1.0" encoding="UTF-8"?>
<svg id="emoji" xmlns="http://www.w3.org/2000/svg" viewBox="0 0 72 72">
  <g id="grid">
    <path d="m68,4v64H4V4h64m4-4H0v72h72V0Z" fill="#b3b3b3"/>
    <path d="m12.923,10.9583h46.1539c1.0621,0,1.9231.861,1.9231,1.9231h0v46.1538c0,1.0621-.861,1.9231-1.9231,1.9231H12.9231c-1.0621,0-1.9231-.861-1.9231-1.9231h0V12.8813c0-1.062.861-1.923,1.923-1.923h0Z" fill="none" stroke="#00a5ff" stroke-miterlimit="10" stroke-width=".1"/>
    <rect x="16" y="4" width="40" height="64" rx="2.2537" ry="2.2537" fill="none" stroke="#00a5ff" stroke-miterlimit="10" stroke-width=".1"/>
    <rect x="4" y="16" width="64" height="40" rx="2.2537" ry="2.2537" fill="none" stroke="#00a5ff" stroke-miterlimit="10" stroke-width=".1"/>
    <circle cx="36" cy="36" r="29" fill="none" stroke="#00a5ff" stroke-miterlimit="10" stroke-width=".1"/>
  </g>
  <g id="color">
    <path d="m57,12H15c-2.2091,0-4,1.7909-4,4v42c0,2.2091,1.7909,4,4,4h42c2.2091,0,4-1.7909,4-4V16c0-2.2091-1.7909-4-4-4Z" fill="#61b2e4"/>
    <line x1="36.9347" y1="62.0086" x2="46.4346" y2="62.0086" fill="none" stroke="#fff" stroke-miterlimit="10" stroke-width="2"/>
    <path d="m48.5,26.8438h4.6875v-7.0312c-3.125,0-15.625-3.125-15.625,10.1562v4.6875h-6.25v7.8125h6.25v18.5644l7.8125-.0139v-18.5505h7.0312l.7812-7.8125h-7.8124v-4.6875c0-3.125,2.3438-3.125,3.125-3.125Z" fill="#fff"/>
  </g>
  <g id="line">
    <path d="m45.6188,62h12.1554c1.7816,0,3.2258-1.4442,3.2258-3.2258V15.2258c0-1.7816-1.4442-3.2258-3.2258-3.2258H14.2258c-1.7816,0-3.2258,1.4442-3.2258,3.2258v43.5484c0,1.7816,1.4442,3.2258,3.2258,3.2258h23.4761" fill="none" stroke="#000" stroke-miterlimit="10" stroke-width="2"/>
    <path d="m45.6183,62v-19.792h7.1251l.7917-7.9168h-7.9168v-4.7501c0-3.1667,2.375-3.1667,3.1667-3.1667h4.7501v-7.1251c-3.1997-.3243-15.8336-3.1667-15.8336,10.2918v4.7501h-6.3334v7.9168h6.3334v19.792" fill="none" stroke="#000" stroke-linecap="round" stroke-linejoin="round" stroke-width="2"/>
  </g>
</svg>

<svg id="emoji" viewBox="0 0 72 72" xmlns="http://www.w3.org/2000/svg">
  <g id="grid">
    <path fill="#b3b3b3" d="M68,4V68H4V4H68m4-4H0V72H72V0Z"/>
    <path fill="none" stroke="#00a5ff" stroke-miterlimit="10" stroke-width="0.1" d="M12.923,10.9583H59.0769A1.9231,1.9231,0,0,1,61,12.8814V59.0352a1.9231,1.9231,0,0,1-1.9231,1.9231H12.9231A1.9231,1.9231,0,0,1,11,59.0352V12.8813A1.923,1.923,0,0,1,12.923,10.9583Z"/>
    <rect x="16" y="4" rx="2.2537" width="40" height="64" fill="none" stroke="#00a5ff" stroke-miterlimit="10" stroke-width="0.1"/>
    <rect x="16" y="4" rx="2.2537" width="40" height="64" transform="translate(72) rotate(90)" fill="none" stroke="#00a5ff" stroke-miterlimit="10" stroke-width="0.1"/>
    <circle cx="36" cy="36" r="29" fill="none" stroke="#00a5ff" stroke-miterlimit="10" stroke-width="0.1"/>
  </g>
  <g id="color">
    <path fill="#61B2E4" stroke="none" d="M57,12H15c-2.2091,0-4,1.7909-4,4v42c0,2.2091,1.7909,4,4,4h42c2.2091,0,4-1.7909,4-4V16 C61,13.7909,59.2091,12,57,12z"/>
    <path fill="#FFFFFF" stroke="none" d="M48.5,26.8438c0.7812,0,4.6875,0,4.6875,0v-7.0312c-3.125,0-15.625-3.125-15.625,10.1562v4.6875h-6.25 v7.8125h6.25V63h7.8125V42.4688h7.0312l0.7812-7.8125H45.375v-4.6875C45.375,26.8438,47.7188,26.8438,48.5,26.8438z"/>
  </g>
  <g id="hair"/>
  <g id="skin"/>
  <g id="skin-shadow"/>
  <g id="line">
    <path fill="none" stroke="#000000" stroke-miterlimit="10" stroke-width="2" d="M45.6188,62h12.1554 C59.5558,62,61,60.5558,61,58.7742V15.2258C61,13.4442,59.5558,12,57.7742,12H14.2258C12.4442,12,11,13.4442,11,15.2258v43.5484 C11,60.5558,12.4442,62,14.2258,62h23.4761"/>
    <path fill="none" stroke="#000000" stroke-linecap="round" stroke-linejoin="round" stroke-miterlimit="10" stroke-width="2" d="M45.6183,62V42.208h7.1251l0.7917-7.9168h-7.9168v-4.7501c0-3.1667,2.375-3.1667,3.1667-3.1667s4.7501,0,4.7501,0v-7.1251 c-3.1997-0.3243-15.8336-3.1667-15.8336,10.2918v4.7501h-6.3334v7.9168h6.3334V62"/>
  </g>
</svg>
